X: 100302
T: CRAIGMILLAR CASTLE REEL
C: By W.C. Paton, Edinburgh
R: strathspey
B: K\"ohler's Violin Repository, v.3, 1885 p.218 #2
F: http://www.archive.org/details/klersviolinrepos03rugg
Z: 2012 John Chambers <jc:trillian.mit.edu>
M: C|
L: 1/8
K: Gm
|:\
vGABc dBG2 | (FG)AB cff2 | (GA)Bc dBG2 | (de)dc (BG)G2 :|
vgaba g^fg2 | (=fg)af cfAf | gaba g^fg2 | (de)dc BGG2 |
(ga)ba g^fg2 | (=fg)af cfAf | gbfB cecA | Bdbd | cA"_Finale."^FD "^D.C."|]

%%sep 2 1 500

